X: 13629
T: Foghorn
R: hornpipe
M: 4/4
K: Dmajor
|:dB|A^GAF DFAc|dcec dBAF|GGBG FFAF|FEGE DCB,A,|
A2 AF DFAc|dcec Acef|gdde eddc|d2 f2 d2:|
|:(3Bcd|e^dec Acef|gfaf d2 cd|BdAd BdAd|Bgfe dcdB|
A^GAF DFAc|dcec Acef|gffe eddc|d2 f2 d2:|

